!!!SOCIAL_FUNCTION:	songs used in the treatment of the sick
!!!PDT:	1922
!!!OTL: No_55_Song_Used_in_Treatment_of_Sick_(d).krn
!!!REG: Southwest
!!!LANG: Non-Tone
!!!LING_GROUP: Uto-Aztecan
**kern
*staff1
=1-
*clefF4
*k[b-e-]
*M2/4
4.B-\
8B-\
=2
2B-\
=3||
*M3/4
8c\L
8B-\J
4c\
8B-\L
16B-\L
16B-\JJ
=4
2B-\
4B-\
=5
4F\
2F\
=6||
*M2/4
8G\L
8F\J
4G\
=7
4.G\
8F\
=8||
*M3/4
8G\L
8F\J
4G\
8F\L
16F\L
16F\JJ
=9||
*M2/4
2F\
=10
4.F\
8F\
=11
2F\
==
*-
